X:1
T:Angelus ad pastores ait
T:Angelus ad pastores ait
T:Claudio Monteverdi
T:© 2011 by Paul R Marchesano. May be freely copied for nonprofit use.
T:© 2011 by Paul R Marchesano. May be freely copied for nonprofit use.
C:Claudio Monteverdi
Z:© 2011 by Paul R Marchesano. May be freely copied for nonprofit use.
%%score [ 1 2 3 ]
L:1/8
Q:1/4=120
M:4/4
K:G
V:1 treble nm="Soprano 1" snm="S 1"
V:2 treble nm="Soprano 2" snm="S 2"
V:3 treble nm="Alto" snm="A"
V:1
 G6 A2 | B8 | z2 c2 d2 e2- | e2 d2 c4 | B8 | z2 c2 d2 e2- | e2 d2 c4 | B4 B4 | e3 e d2 d2 | %9
w: An- ge-|lus|ad pa- sto-|* res a-|it,|ad pa- sto-|* res a-|it: An-|nun- ti- o, An-|
 g3 g e4 | z2 d2 G2 A2 | B4 A4 |[M:3/4] B2 d3 d | B2 GA BG | d3 c dB | cB AG A2 | B d2 d B2 | %17
w: nun- ti- o,|An- nun- ti-|o, vo-|bis gau- di-|um ma- * * *|||gnum, gau- di- um|
 AB cA e2- | ed c2 B2 | d4 d2 | d2 B3 A | G2 c4 | B2 A4 |[M:4/4] B2 d4 c2 | B4 A2 A2 | %25
w: ma- * * * *|* * * gnum,|gau- di-|um ma- *|||gnum: qui- a|na- tus est|
 B2 c2 d2 d2- | d2 c2 d2 e2 | A4 B2 c2- | c2 B2 z4 | z2 d2 e3 d/c/ | d2 A2 B2 ^c2 | d2 G2 A2 B2 | %32
w: vo- * bis ho-|* di- e Sal-|va- tor mun-|* di,|Sal- va- * *|* tor mun- *|di, Sal- va- tor|
 A8 | B8 |] %34
w: mun-|di.|
V:2
 z8 | z4 G4- | G2 A2 B4- | B4 E4 | F2 G4 F2 | GF/G/ A4 G2 | F4 E4- | E4 z2 G2 | c3 c B4 | %9
w: |An-|* ge- lus|_ ad|pa- sto- res|a- * * * *|* it:|_ An-|nun- ti- o,|
 z2 B2 c3 c | B2 B2 e3 e | d2 G3 F/E/ F2 |[M:3/4] G6 | z2 d3 d | B2 GA BG | AG FE F2 | D2 G3 G | %17
w: An- nun- ti-|o, An- nun- ti-|o vo- * * *|bis|gau- di-|um ma- * * *||gnum, gau- di-|
 F2 E3 F | G2 A2 D2 | z2 B4 | B2 E4 | E3 F G>E | G4 F2 |[M:4/4] G4 z2 A2- | A2 G2 F4 | %25
w: um ma- *|* * gnum,|gau-|di- um|ma- * * *||gnum: qui-|* a na-|
 E2 E2 F2 G2 | A4 G4 | F4 E4 | z2 G2 E4 | F2 G4 E2 | z2 E2 G4 | F2 E3 F G2 | F2 G4 F2 | G8 |] %34
w: tus est vo- *|bis ho-|di- e|Sal- va-|tor mun- di,|Sal- va-|tor mun- * *||di.|
V:3
 z8 | z8 | z8 | z4 z2 C2 | D2 E4 D2 | C4 B,4- | B,4 z2 C2 | G3 G E4 | z2 C2 G3 G | E4 A4 | %10
w: |||ad|pa- sto- res|a- it:|_ An-|nun- ti- o,|An- nun- ti-|o vo-|
 G2 G,2 C3 C | B,4 D4 |[M:3/4] G,6- | G,2 z2 z2 | z2 D3 D | C2 D3 D | B,2 G,4 | D2 A,2 C2- | %18
w: bis An- nun- ti-|o vo-|bis|_|gau- di-|um gau- di-|um ma-|gnum, gau- *|
 CB, A,2 G,A, | B,G, G2 D2 | G3 G G2 | C3 D E2- | ED C2 D2 |[M:4/4] G,4 z4 | z4 z2 D2- | %25
w: * di- um ma- *|* * * gnum,|gau- di- um|ma- * *||gnum:|qui-|
 D2 C2 B,4 | A,2 A,2 B,2 C2 | D2 D4 C2 | E4 C2 A,2- | A,2 B,2 C4 | B,2 A,2 E4 | D2 C4 G,2 | D8 | %33
w: * a na-|tus est vo- *|bis ho- di-|e Sal- va-|* tor mun-|di, Sal- va-|tor mun- *||
 G,8 |] %34
w: di.|

